!!!!SEGMENT: pl-kk--kk-i-382--007-001_anonim--nro-2-alleluia-ave-maria.krn
!!!cenid: 18xx:1463
!!!COM: Anonim
!!!COM-rismid: pe30004985
!!!CDT:
!!!CNT:
!!!OPR: Nro 2
!!!OTL: Alleluia Ave Maria
!!!OMV: 004
!!!PDT:
!!!AGN: Sacred
!!!SMS-siglum: PL-Kk
!!!SMS-shelfmark: Kk.I.382
!!!SMS-shelfwork: 002-004 M
!!!SMS-variant:
!!!SMS-altvar:
!!!NIFC-rismid: 1001139090
!!!URL-scan: http://repozytorium.nifc.pl/skany/pl-kk-nut--i-382
!!!ONB-nifc: UWAGA: obsada: S/T 1, T 2, A/B 1, B 2. Skan 0007, 0078, 0150-0151, 0223
!!!AIN: 1 alto 1 bass 2 tenor
!!!key:
**kern	**text	**dynam	**kern	**text	**kern	**text	**kern	**text
*part4	*part4	*part4	*part3	*part3	*part2	*part2	*part1	*part1
*staff4	*staff4	*	*staff3	*staff3	*staff2	*staff2	*staff1	*staff1
*Ibass	*	*	*Itenor	*	*Ialto	*	*Itenor	*
*I"Basso II	*	*	*I"Tenore II	*	*I"Alto vel Basso I	*	*I"Soprano vel Tenore I.	*
*I'B 2	*	*	*I'T 2	*	*I'A/B 1	*	*I'S/T 1	*
*group1	*	*	*group1	*	*group1	*	*group1	*
*clefF4	*	*	*clefC4	*	*clefC3	*	*clefC1	*
*k[b-e-]	*	*	*k[b-e-]	*	*k[b-e-]	*	*k[b-e-]	*
*g:	*	*	*g:	*	*g:	*	*g:	*
*M4/4	*	*	*M4/4	*	*M4/4	*	*M4/4	*
*met(c|)	*	*	*met(c|)	*	*met(c)	*	*met(c)	*
=1	=1	=1	=1	=1	=1	=1	=1	=1
*2\right	*	*	*2\right	*	*2\right	*	*2\right	*
!LO:TX:a:t=P:global:problem=metrum C przekreślone z kropką w środku	!	!	!LO:TX:a:t=P:global:problem=metrum C przekreślone z kropką w środku	!	!	!	!	!
!LO:TX:a:t=Alleluja	!	!	!LO:TX:a:t=Graduale	!	!LO:TX:a:t=Alleluja	!	!LO:TX:a:t=Alleluja	!
!	!	!	!LO:TX:t=P:allabreve:problem	!	!LO:TX:a:t=P:global:problem=metrum C z kropką w środku	!	!LO:TX:a:t=P:global:problem=metrum C z kropką w środku	!
!LO:TX:t=P:problem=alla breve	!	!	!LO:TX:a:t=in Gmol.	!	!LO:TX:t=P:problem=all/right&colon; global	!	!LO:TX:t=P:problem=all/right&colon; global	!
2G\	Al-	.	2B-\	Al-	2g\	Al-	2dd\	Al-
2A\	-le-	.	(4A\	-le-	2f#X\	-le-	2cc\	-le-
.	.	.	4c\)	.	.	.	.	.
=2	=2	=2	=2	=2	=2	=2	=2	=2
2B-\	-lu-	.	2d\	-lu-	2g\	-lu-	2b-\	-lu-
2F#X\	-ia	.	2A\	-ia	2d\	-ia	2dd\	-ja
=3	=3	=3	=3	=3	=3	=3	=3	=3
2G\	al-	.	2G/	al-	(4d\	al-	(4b-\	al-
.	.	.	.	.	4en\)	.	4cc\	.
2Fn\	-le-	.	2A/	-le-	2fn\	-le-	2dd\)	.
=4	=4	=4	=4	=4	=4	=4	=4	=4
1E-	-lu-	.	(2B-\	-lu-	1g	-lu-	2dd\	-le-
.	.	.	2G/)	.	.	.	2cc\	-lu-
=5	=5	=5	=5	=5	=5	=5	=5	=5
2D\	-ia	.	2A/	-ia	2f#X\	-ia	2dd\	-ja
(4G\	al-	.	[>2G/	al-	2g\	al-	(2b-\	al-
4F\	.	.	.	.	.	.	.	.
=6	=6	=6	=6	=6	=6	=6	=6	=6
2E-\)	.	.	2G/]	.	2g\	-le-	2ee-X\)	.
2BB-/	-le-	.	2B-\	-le-	2fn\	-lu-	2dd\	-le-
=7	=7	=7	=7	=7	=7	=7	=7	=7
1F	-lu-	.	(2B-\	-lu-	1f	-ia	1cc	-lu-
.	.	.	2A\)	.	.	.	.	.
!LO:LB:g=original	!	!	!LO:LB:g=original	!	!	!	!LO:LB:g=original	!
=8	=8	=8	=8	=8	=8	=8	=8	=8
2BB-/	-ia	.	2B-\	-ia	(2f\	al-	2dd\	-ja
2E-\	al-	.	2G/	al-	2e-X\)	.	2b-\	al-
!	!	!	!	!	!LO:LB:g=original	!	!	!
=9	=9	=9	=9	=9	=9	=9	=9	=9
2C/	-le-	.	2G/	-le-	2e-\	-le-	2.a\	-le-
2D/	-lu-	.	2F#X/	-lu-	2d\	-lu-	.	.
.	.	.	.	.	.	.	4a\	-lu-
=10	=10	=10	=10	=10	=10	=10	=10	=10
4GG/	-ia	.	4G/	-ia	2d\	-ia	4b-\	-ja
!LO:TX:a:t=Solo.	!	!LO:DY:b:t=p.	!	!	!	!	!	!
4d\	al-	p	4d\	al-	.	.	4dd\	al-
4c\	-le-	.	4c\	-le-	2r	.	4cc\	-le-
4A\	-lu-	.	4A\	-lu-	.	.	4a\	-lu-
=11	=11	=11	=11	=11	=11	=11	=11	=11
2B-\	-ia	.	(2B-\	-ia	4r	.	2b-\	-ja
.	.	.	.	.	4g\	al-	.	.
(4A\	al-	.	4A\)	.	4fn\	-le-	(4a\	al-
4d\)	.	.	4d\	al-	4d\	-lu-	4dd\)	.
=12	=12	=12	=12	=12	=12	=12	=12	=12
4G\	[le]-	.	(4G\	-le-	2.e-X\	-ia	(4g\	-le-
4A\	.	.	4A\)	.	.	.	4a\	.
4B-\	.	.	(4B-\	-lu-	.	.	4b-\	.
4c\	.	.	4c\)	.	4e-\	al-	4cc\)	.
=13	=13	=13	=13	=13	=13	=13	=13	=13
2.d\	.	.	4d\	-ia	4d\	-le-	2.dd\	-lu-
.	.	.	4d\	al-	4f#X\	.	.	.
.	.	.	4c\	-le-	4g\	.	.	.
4c\	lu-	.	4A\	-lu-	4a\	.	4cc\	.
=14	=14	=14	=14	=14	=14	=14	=14	=14
4d\	-ia	.	(2B-\	-ia	2.g\	.	2dd\	-ja
!	!	!LO:DY:b:t=f.	!	!	!	!	!	!
4G\	al-	f	.	.	.	.	.	.
4F\	-le-	.	4A\)	.	.	.	4r	.
4D\	-lu-	.	4d\	al-	4a\	.	4dd\	al-
!LO:LB:g=original	!	!	!LO:LB:g=original	!	!	!	!LO:LB:g=original	!
=15	=15	=15	=15	=15	=15	=15	=15	=15
2.E-\	-ia	.	4G/	-le-	4g\	.	(4b-\	-[le]-
.	.	.	4A/	.	4f#X\	.	4a\)	.
.	.	.	4B-\	-lu-	(4g\	-lu-	(4g\	-lu-
4E-\	al-	.	4c\	.	4a\)	.	4cc\)	.
=16	=16	=16	=16	=16	=16	=16	=16	=16
(4D/	-le-	.	2.d\	-ia	2f#X\	-ia	2a\	-ja
4C/)	.	.	.	.	.	.	.	.
(4BB-/	-lu-	.	.	.	(4g\	al-	(4b-\	al-
4AA/)	.	.	4c\	.	4f#\)	.	4cc\)	.
!	!	!	!	!	!LO:LB:g=original	!	!	!
=17	=17	=17	=17	=17	=17	=17	=17	=17
(4GG/	-ia	.	2.B-\	.	2g\	-le-	(4dd\	-le-
4G\	.	.	.	.	.	.	2b-\)	.
4E-\	al-	.	.	.	2g\	-lu-	.	.
4C\)	.	.	(4e-\	al-	.	.	4cc\	-lu-
=18	=18	=18	=18	=18	=18	=18	=18	=18
(4F\	-le-	.	4c\)	.	2fn\	-ia	(4a\	-ja
4BB-/)	.	.	4d\	-le-	.	.	2b-\	.
(4F\	-lu-	.	2c\	-lu-	2f\	al-	.	.
4FF/)	.	.	.	.	.	.	4a\	.
=19	=19	=19	=19	=19	=19	=19	=19	=19
(4BB-/	-ia	.	4d\	-ia	4f\	-le-	4b-\)	.
4B-\)	.	.	4B-\	al-	4f\	-lu-	4dd\	al-
(4A\	al-	.	4c\	.	4f#X\	-ia	4cc\	-le-
4G\)	.	.	4d\	.	4g\	al-	4b-\	-lu-
=20	=20	=20	=20	=20	=20	=20	=20	=20
(4D\	-le-	.	2d\	-le-	(4f#X\	-le-	4a\	-ja
4G\)	.	.	.	.	2g\)	.	4b-\	al-
2D\	-lu-	.	2d\	-lu-	.	.	4a\	-le-
.	.	.	.	.	4f#\	-lu-	4a\	-lu-
=21	=21	=21	=21	=21	=21	=21	=21	=21
!	!	!	!	!	!LO:TX:a:t=V&colon; S&colon;	!	!LO:N:vis=0	!
!LO:N:vis=0	!	!	!	!	!LO:TX:a:t=Seque Ave.	!	!LO:TX:a:t=V&colon; S&colon;	!
1GG	-ia.	.	1d	-ia.	1g	-ia.	1bn	-ja.
!LO:LB:g=original	!	!	!	!	!LO:PB:g=original	!	!LO:PB:g=original	!
==22	==22	==22	==22	==22	==22	==22	==22	==22
*M4/4	*	*	*M4/4	*	*M4/4	*	*M4/4	*
*met(c|)	*	*	*met(c|)	*	*met(c)	*	*met(c)	*
!LO:TX:a:t=Solo.	!	!LO:DY:b:t=p.	!	!	!LO:TX:a:t=1.	!	!	!
2G\	A-	p	2G/	A-	1r	.	2g\	A-
4B-\	-ve	.	4B-\	-ve-	.	.	4b-\	-ve-
4B-\	ma-	.	4B-\	-ma-	.	.	4b-\	-ma-
=23	=23	=23	=23	=23	=23	=23	=23	=23
4A\	-ri-	.	2A\	-ri-	2d\	A-	4a\	-ri-
4A\	-a	.	.	.	.	.	4a\	-a
[2d\	A-	.	2d\	-a	4fn\	-ve	2dd\	gra-
.	.	.	.	.	4f\	ma-	.	.
=24	=24	=24	=24	=24	=24	=24	=24	=24
2d\]	.	.	4d\	gra-	2en\	-ri-	2dd\	-ti-
.	.	.	4d\	-ti-	.	.	.	.
2c#X\	.	.	2c#X\	-a	2a\	-a	2cc#X\	-a
=25	=25	=25	=25	=25	=25	=25	=25	=25
4d\	.	.	4d\	ple-	(2f#X\	gra-	(4dd\	ple-
4cn\	.	.	4c\	.	.	.	4ccn\	.
4B-X\	.	.	4B-X\	.	2g\	.	4b-X\	.
8c\L	.	.	8c\L	.	.	.	8cc\L	.
8B-\J	.	.	8B-\J	.	.	.	8b-\J	.
=26	=26	=26	=26	=26	=26	=26	=26	=26
1A	.	.	1A	-na	2g\)	.	1a)	.
.	.	.	.	.	2f#X\	-ti-	.	.
=27	=27	=27	=27	=27	=27	=27	=27	=27
4B-\	.	.	2G/	A-	4g\	-a	4b-\	-na
4c\	-ve	.	.	.	4g\	a-	4cc\	a-
4d\	.	.	4B-\	-ve-	4d\	-ve-	4dd\	-ve-
!LO:TX:t=P:problem=podwójna kreska taktowa	!	!	!	!	!	!	!	!
4G\	.	.	4B-\	-ma-	4en\	-ma-	4g\	-ma-
==28	=28	=28	=28	=28	=28	=28	=28	=28
!LO:TX:a:t=Baſso.	!	!	!	!	!	!	!	!
2D\	A-	.	2A\	-ri-	2f\	-ri-	2a\	-ri-
4F\	-ve	.	2d\	-a	2d\	-a	2a\	-a
!LO:TX:a:t=V&colon; S&colon;	!	!	!	!	!	!	!	!
4F\	ma-	.	.	.	.	.	.	.
!LO:PB:g=original	!	!	!LO:LB:g=original	!	!	!	!LO:LB:g=original	!
=29	=29	=29	=29	=29	=29	=29	=29	=29
4En\	ri-	.	2d\	gra-	2en\	gra-	(2g\	gra-
4E\	-a	.	.	.	.	.	.	.
(4A\	gra-	.	2c#X\	-ti-	4e\	-ti-	2a\	.
4G\)	.	.	.	.	4e\	-a	.	.
!	!	!	!	!	!LO:LB:g=original	!	!	!
=30	=30	=30	=30	=30	=30	=30	=30	=30
2F#X\	-ti-	.	(4d\	-a	1d	ple-	2a\)	.
.	.	.	4cn\)	.	.	.	.	.
2G\	-a	.	(4B-X\	ple-	.	.	4b-\	-ti-
.	.	.	8c\L	.	.	.	4b-\	-a
.	.	.	8B-\J)	.	.	.	.	.
=31	=31	=31	=31	=31	=31	=31	=31	=31
(2G\	ple-	.	1A	.	2en\	-na	(2cc\	ple-
2F#X\)	.	.	.	.	2f#X\	Do-	2dd\)	.
=32	=32	=32	=32	=32	=32	=32	=32	=32
4G\	-na	.	4B-\	-na	2d\	.	2g\	-na
!LO:TX:a:t=Solo.	!	!LO:DY:b:t=p.	!	!	!	!	!	!
4G\	Do-	p	4G/	Do-	.	.	.	.
4G\	-mi-	.	4G/	-mi-	[2g\	.	2r	.
4G\	-nus	.	4G/	-nus	.	.	.	.
=33	=33	=33	=33	=33	=33	=33	=33	=33
!	!	!	!	!	!	!	!LO:TX:b:t=1.	!
(2A\	te-	.	(2A\	te-	2g\]	.	1r	.
2Bn\)	.	.	2Bn\)	.	4fn\	-mi-	.	.
.	.	.	.	.	4f\	-nus	.	.
=34	=34	=34	=34	=34	=34	=34	=34	=34
(4c\	-cum	.	(4c\	-cum	4e-X\	te-	2r	.
4G\)	.	.	4G/)	.	4d\	-cum	.	.
!	!	!LO:DY:b:t=f.	!	!	!	!	!	!
4E-X\	be-	f	4B-X\	be-	4e-\	be-	4g\	be-
4E-\	-ne-	.	4B-\	-ne-	4e-\	-ne-	4g\	-ne-
=35	=35	=35	=35	=35	=35	=35	=35	=35
2F\	-dic-	.	(2c\	-dic-	2d\	-dic-	2a-X\	-dic-
2G\	-ta	.	2Bn\)	.	2d\	-ta	(4g\	-ta
.	.	.	.	.	.	.	4f\)	.
!LO:LB:g=original	!	!	!	!	!	!	!	!
=36	=36	=36	=36	=36	=36	=36	=36	=36
2C/	tu	.	2c\	-ta	2e-X\	tu	2e-/	tu
2c\	in	.	2r	.	2e-\	in	2g/	in
!	!	!	!LO:LB:g=original	!	!	!	!	!
=37	=37	=37	=37	=37	=37	=37	=37	=37
2c\	mu-	.	1d	tu	2f\	mu-	2a-X\	mu-
[2B-\	-li-	.	.	.	2g\	-li-	2b-\	-li-
!	!	!	!	!	!LO:LB:g=original	!	!LO:LB:g=original	!
=38	=38	=38	=38	=38	=38	=38	=38	=38
2B-\]	.	.	1c	in	2c\	-e-	2cc\	-e-
[2A-X\	-e-	.	.	.	4f\	.	2f/	.
.	.	.	.	.	4e-X\	.	.	.
=39	=39	=39	=39	=39	=39	=39	=39	=39
2A-X\]	.	.	2.B-\	mu-	4d\	.	2b-\	.
.	.	.	.	.	4B-/	.	.	.
2G\	.	.	.	.	2e-\	.	2e-X/	.
.	.	.	4B-\	-li-	.	.	.	.
=40	=40	=40	=40	=40	=40	=40	=40	=40
2.F\	.	.	2.A-X\	-e-	2e-\	.	2.f/	.
.	.	.	.	.	2d\	-ri-	.	.
4F\	-ri-	.	4A-\	-ri-	.	.	4f/	-ri-
=41	=41	=41	=41	=41	=41	=41	=41	=41
2E-X\	-bus	.	2G/	-bus	2e-\	-bus	4g\	-bus
.	.	.	.	.	.	.	4g\	et
2c\	et	.	2c\	et	2r	.	[2ee-X\	be-
=42	=42	=42	=42	=42	=42	=42	=42	=42
2F\	be-	.	2c\	be-	1a-X	be-	2ee-\]	.
2B-\	-ne-	.	2B-\	-ne-	.	.	2dd\	.
=43	=43	=43	=43	=43	=43	=43	=43	=43
2E-X\	-dic-	.	2B-\	-dic-	1g	-ne-	2dd\	.
2A-X\	-tus	.	2A-X\	-tus	.	.	2cc\	-ne-
=44	=44	=44	=44	=44	=44	=44	=44	=44
(2D\	fru-	.	2A-X\	fru-	1f	-dic-	(2cc\	-dic-
2G\)	.	.	2G/	.	.	.	2bn\)	.
!LO:LB:g=original	!	!	!	!	!	!	!	!
=45	=45	=45	=45	=45	=45	=45	=45	=45
2C/	-ctus	.	2G/	-ctus	2e-X\	-tus	2cc\	-tus
4G\	be-	.	4B-\	be-	4d\	be-	4g/	be-
4G\	-ne-	.	4B-\	-ne-	4d\	-ne-	4g/	-ne-
!	!	!	!LO:LB:g=original	!	!	!	!	!
=46	=46	=46	=46	=46	=46	=46	=46	=46
2G\	-dic-	.	2c\	-dic-	2en\	-dic-	2an\	-dic-
2F#X\	-tus	.	2d\	-tus	2f#X\	-tus	2a\	-tus
!	!	!	!	!	!	!	!LO:LB:g=original	!
=47	=47	=47	=47	=47	=47	=47	=47	=47
2G\	fru-	.	2B-\	fru-	2d\	fru-	2b-\	fru-
2D\	-ctus	.	2An\	-ctus	2f#X\	-ctus	2dd\	-ctus
!	!	!	!	!	!LO:LB:g=original	!	!	!
=48	=48	=48	=48	=48	=48	=48	=48	=48
2G\	ven-	.	2B-\	ven-	2d\	ven-	2b-\	ven-
2Fn\	-tris	.	2A\	-tris	2fn\	-tris	2dd\	-tris
=49	=49	=49	=49	=49	=49	=49	=49	=49
1E-X	tu-	.	2B-\	tu-	1g	tu-	(2dd\	tu-
.	.	.	2G/	.	.	.	2cc\)	.
=50	=50	=50	=50	=50	=50	=50	=50	=50
!	!	!	!	!	!	!	!LO:N:vis=0	!
!LO:N:vis=0	!	!	!LO:TX:a:t=Alleluia Da Capo.	!	!	!	!LO:TX:a:t=Alleluia Da Capo.	!
1D	-i.	.	1A	-i.	1f#X	-i.	1dd	-i.
!	!	!	!	!	!	!	!LO:LB:g=original	!
==51	==51	==51	==51	==51	==51	==51	==51	==51
2G\	Al-	.	2B-\yy	Al-	2g\	Al-	2dd\yy	Al-
2A\	-le-	.	(4A\yy	-le-	2f#X\	-le-	2cc\yy	-le-
.	.	.	4c\)yy	.	.	.	.	.
=52	=52	=52	=52	=52	=52	=52	=52	=52
2B-\	-lu-	.	2d\yy	-lu-	2g\	-lu-	2b-\yy	-lu-
2F#X\	-ia	.	2A\yy	-ia	2d\	-ia	2dd\yy	-ja
!LO:LB:g=original	!	!	!	!	!	!	!	!
=53	=53	=53	=53	=53	=53	=53	=53	=53
2G\	al-	.	2G/yy	al-	(4d\	al-	(4b-\yy	al-
.	.	.	.	.	4en\)	.	4cc\yy	.
2Fn\	-le-	.	2A/yy	-le-	2fn\	-le-	2dd\)yy	.
=54	=54	=54	=54	=54	=54	=54	=54	=54
1E-X	-lu-	.	(2B-\yy	-lu-	1g	-lu-	2dd\yy	-le-
.	.	.	2G/)yy	.	.	.	2cc\yy	-lu-
=55	=55	=55	=55	=55	=55	=55	=55	=55
2D\	-ia	.	2A/yy	-ia	2f#X\	-ia	2dd\yy	-ja
(4G\	al-	.	[2G/yy	al-	2g\	al-	(2b-\yy	al-
4F\)	.	.	.	.	.	.	.	.
=56	=56	=56	=56	=56	=56	=56	=56	=56
2E-\	.	.	2G/]yy	.	2g\	-le-	2ee-X\)yy	.
2BB-/	-le-	.	2B-\yy	-le-	2fn\	-lu-	2dd\yy	-le-
=57	=57	=57	=57	=57	=57	=57	=57	=57
1F	-lu-	.	(2B-\yy	-lu-	1f	-ia	1ccyy	-lu-
.	.	.	2A\)yy	.	.	.	.	.
!	!	!	!LO:LB:g=original	!	!	!	!LO:LB:g=original	!
=58	=58	=58	=58	=58	=58	=58	=58	=58
2BB-/	-ia	.	2B-\yy	-ia	(2f\	al-	2dd\yy	-ja
2E-\	al-	.	2G/yy	al-	2e-X\)	.	2b-\yy	al-
!	!	!	!	!	!LO:LB:g=original	!	!	!
=59	=59	=59	=59	=59	=59	=59	=59	=59
2C/	-le-	.	2G/yy	-le-	2e-\	-le-	2.a\yy	-le-
2D/	-lu-	.	2F#X/yy	-lu-	2d\	-lu-	.	.
.	.	.	.	.	.	.	4a\yy	-lu-
=60	=60	=60	=60	=60	=60	=60	=60	=60
4GG/	-ia	.	4G/yy	-ia	2d\	-ia	4b-\yy	-ja
4d\	al-	.	4d\yy	al-	.	.	4dd\yy	al-
4c\	-le-	.	4c\yy	-le-	2r	.	4cc\yy	-le-
4A\	-lu-	.	4A\yy	-lu-	.	.	4a\yy	-lu-
=61	=61	=61	=61	=61	=61	=61	=61	=61
2B-\	-ia	.	(2B-\yy	-ia	4r	.	2b-\yy	-ja
.	.	.	.	.	4g\	al-	.	.
(4A\	al-	.	4A\)yy	.	4fn\	-le-	(4a\yy	al-
4d\)	.	.	4d\yy	al-	4d\	-lu-	4dd\)yy	.
!LO:LB:g=original	!	!	!	!	!	!	!	!
=62	=62	=62	=62	=62	=62	=62	=62	=62
4G\	-le-	.	(4G\yy	-le-	2.e-X\	-ia	(4g\yy	-le-
4A\	.	.	4A\)yy	.	.	.	4a\yy	.
4B-\	.	.	(4B-\yy	-lu-	.	.	4b-\yy	.
4c\	.	.	4c\)yy	.	4e-\	al-	4cc\)yy	.
=63	=63	=63	=63	=63	=63	=63	=63	=63
2.d\	-lu-	.	4d\yy	-ia	4d\	-le-	2.dd\yy	-lu-
.	.	.	4d\yy	al-	4f#X\	.	.	.
.	.	.	4c\yy	-le-	4g\	.	.	.
4c\	.	.	4A\yy	-lu-	4a\	.	4cc\yy	.
=64	=64	=64	=64	=64	=64	=64	=64	=64
4d\	-ia	.	(2B-\yy	-ia	2.g\	.	2dd\yy	-ja
4G\	al-	.	.	.	.	.	.	.
4F\	-le-	.	4A\)yy	.	.	.	4ryy	.
4D\	-lu-	.	4d\yy	al-	4a\	.	4dd\yy	al-
!	!	!	!LO:LB:g=original	!	!	!	!LO:LB:g=original	!
=65	=65	=65	=65	=65	=65	=65	=65	=65
2.E-\	-ia	.	4G/yy	-le-	4g\	.	(4b-\yy	-[le]-
.	.	.	4A/yy	.	4f#X\	.	4a\)yy	.
.	.	.	4B-\yy	-lu-	(4g\	-lu-	(4g\yy	-lu-
4E-\	al-	.	4c\yy	.	4a\)	.	4cc\)yy	.
=66	=66	=66	=66	=66	=66	=66	=66	=66
4D/	-le-	.	2.d\yy	-ia	2f#X\	-ia	2a\yy	-ja
4C/	.	.	.	.	.	.	.	.
4BB-/	-lu-	.	.	.	(4g\	al-	(4b-\yy	al-
4AA/	.	.	4c\yy	.	4f#\)	.	4cc\)yy	.
=67	=67	=67	=67	=67	=67	=67	=67	=67
(4GG/	-ia	.	2.B-\yy	.	1g	.	(4dd\yy	-le-
4G\)	.	.	.	.	.	.	2b-\)yy	.
(4E-\	al-	.	.	.	.	.	.	.
4C/)	.	.	(4e-\yy	al-	.	.	4cc\yy	-lu-
=68	=68	=68	=68	=68	=68	=68	=68	=68
(4F\	-le-	.	4c\)yy	.	2fn\	-le-	(4a\yy	-ja
4BB-/)	.	.	4d\yy	-le-	.	.	2b-\yy	.
(4F\	-lu-	.	2c\yy	-lu-	2f\	-lu-	.	.
4FF/)	.	.	.	.	.	.	4a\yy	.
!LO:LB:g=original	!	!	!	!	!LO:LB:g=original	!	!	!
=69	=69	=69	=69	=69	=69	=69	=69	=69
4BB-/	-ia	.	4d\yy	-ia	4f\	-ia	4b-\)yy	.
(4B-\	al-	.	4B-\yy	al-	(4f\	al-	4dd\yy	al-
4A\	.	.	4c\yy	.	4f#X\	.	4cc\yy	-le-
4G\)	.	.	4d\yy	.	4g\)	.	4b-\yy	-lu-
=70	=70	=70	=70	=70	=70	=70	=70	=70
(4D\	-le-	.	2d\yy	-le-	(4f#X\	-le-	4a\yy	-ja
4G\)	.	.	.	.	2g\)	.	4b-\yy	al-
2D\	-lu-	.	2d\yy	-lu-	.	.	4a\yy	-le-
.	.	.	.	.	4f#\	-lu-	4a\yy	-lu-
=71	=71	=71	=71	=71	=71	=71	=71	=71
!	!	!	!	!	!	!	!LO:N:vis=0	!
!LO:N:vis=0	!	!	!	!	!	!	!LO:TX:a:t=V&colon; S&colon;	!
1GG	-ia.	.	1dyy	-ia.	1g	-ia.	1bnyy	-ja.
==	==	==	==	==	==	==	==	==
*-	*-	*-	*-	*-	*-	*-	*-	*-
!!!system-decoration: [(g1)]
!!!RDF**kern: >= above
!!!RDF**kern: <= below
!!!ENC: Anna Matuszewska
!!!END: 2021-02-02
!!!ENC: Krzysztof Stępień
!!!END: 2021-01-27
